source_images/ic_set/ic_set_envoy.svg

<svg xmlns:svg="http://www.w3.org/2000/svg" xmlns="http://www.w3.org/2000/svg" height="18" viewBox="0 0 17 18" width="17" version="1.1"><path d="m5.04 18 0-1.63 0.06 0 2.85-7.23 0.33 0.13-2.8 7.1 5.7 0-2.48-7.16 0.33-0.12 2.52 7.28 0.05 0 0 1.63-6.56 0zm4.37-2.11 0 0 0 0c-0.2-0.13-0.32-0.31-0.36-0.53-0.04-0.19-0.02-0.36 0.07-0.52-0.49 0.04-0.98 0.03-1.46-0.03 0.07 0.16 0.09 0.34 0.04 0.52-0.06 0.22-0.18 0.4-0.38 0.52C7.1 15.96 6.88 16 6.66 15.94 6.43 15.89 6.26 15.76 6.14 15.56 6.02 15.36 5.99 15.14 6.04 14.92 6.08 14.74 6.17 14.6 6.31 14.49 5.86 14.33 5.42 14.13 5.02 13.88c0 0.17-0.05 0.33-0.16 0.48-0.13 0.19-0.32 0.3-0.55 0.34C4.08 14.73 3.87 14.68 3.68 14.55 3.5 14.41 3.38 14.23 3.35 14 3.31 13.77 3.36 13.56 3.49 13.37 3.6 13.21 3.75 13.11 3.92 13.06 3.57 12.73 3.24 12.36 2.96 11.96 2.89 12.12 2.77 12.25 2.61 12.34 2.41 12.45 2.2 12.47 1.97 12.41 1.75 12.35 1.58 12.21 1.46 12.01 1.35 11.81 1.33 11.59 1.39 11.37 1.46 11.14 1.59 10.97 1.79 10.86 1.95 10.77 2.12 10.74 2.3 10.76 2.19 10.5 2.09 10.23 2.01 9.95 1.93 9.66 1.86 9.37 1.82 9.08 1.68 9.19 1.52 9.26 1.34 9.27 1.11 9.28 0.91 9.21 0.73 9.05 0.56 8.89 0.46 8.7 0.45 8.47 0.44 8.24 0.51 8.03 0.67 7.86 0.83 7.68 1.02 7.59 1.25 7.58 1.44 7.57 1.61 7.61 1.75 7.71 1.78 7.22 1.86 6.74 1.99 6.27 1.82 6.32 1.64 6.31 1.46 6.24 1.25 6.16 1.1 6 1.01 5.79 0.91 5.57 0.91 5.36 1 5.14 1.08 4.93 1.24 4.77 1.45 4.68 1.67 4.59 1.89 4.59 2.1 4.68 2.27 4.74 2.4 4.85 2.49 5 2.7 4.58 2.96 4.17 3.27 3.8 3.09 3.78 2.94 3.71 2.81 3.58 2.65 3.42 2.56 3.22 2.56 2.99 2.55 2.75 2.63 2.55 2.79 2.39 2.95 2.22 3.15 2.13 3.38 2.13 3.62 2.12 3.82 2.2 3.99 2.36 4.12 2.5 4.2 2.65 4.23 2.83 4.6 2.53 5.01 2.26 5.46 2.03 5.3 1.94 5.19 1.8 5.13 1.62 5.04 1.41 5.05 1.19 5.15 0.98 5.25 0.76 5.4 0.62 5.62 0.54c0.22-0.08 0.43-0.07 0.65 0.02 0.21 0.1 0.36 0.26 0.44 0.47 0.06 0.17 0.07 0.34 0.02 0.51C7.21 1.41 7.68 1.33 8.15 1.31 8.05 1.16 8.01 0.99 8.01 0.81 8.02 0.58 8.12 0.38 8.29 0.22 8.46 0.06 8.67-0.01 8.9 0 9.13 0.01 9.32 0.1 9.48 0.28 9.64 0.45 9.71 0.65 9.7 0.88 9.69 1.07 9.63 1.23 9.52 1.37c0.49 0.07 0.96 0.2 1.41 0.37-0.03-0.18-0.01-0.36 0.08-0.53 0.11-0.2 0.27-0.34 0.5-0.41 0.22-0.07 0.44-0.05 0.64 0.05 0.2 0.11 0.34 0.27 0.41 0.5 0.07 0.22 0.05 0.44-0.06 0.64-0.08 0.16-0.2 0.28-0.36 0.36 0.4 0.25 0.78 0.55 1.12 0.89 0.04-0.17 0.13-0.32 0.27-0.44 0.17-0.15 0.38-0.22 0.62-0.2 0.23 0.02 0.43 0.12 0.58 0.29 0.15 0.17 0.21 0.38 0.2 0.61-0.02 0.23-0.12 0.43-0.29 0.58-0.14 0.12-0.31 0.19-0.49 0.2 0.27 0.4 0.5 0.84 0.68 1.3 0.11-0.15 0.26-0.25 0.45-0.3 0.22-0.06 0.44-0.03 0.64 0.09 0.2 0.12 0.33 0.29 0.39 0.51 0.06 0.22 0.03 0.44-0.09 0.64-0.12 0.2-0.29 0.33-0.51 0.39-0.17 0.05-0.34 0.04-0.5-0.03 0.09 0.48 0.12 0.96 0.1 1.43 0.16-0.09 0.33-0.12 0.51-0.09 0.23 0.03 0.41 0.14 0.55 0.33 0.14 0.19 0.2 0.4 0.16 0.62-0.03 0.23-0.14 0.41-0.33 0.55-0.19 0.14-0.4 0.2-0.62 0.16-0.18-0.03-0.34-0.1-0.46-0.23-0.11 0.47-0.28 0.92-0.48 1.35 0.17-0.02 0.33 0.02 0.49 0.11 0.2 0.12 0.33 0.29 0.39 0.52 0.06 0.23 0.03 0.44-0.08 0.64-0.12 0.2-0.29 0.33-0.52 0.39-0.23 0.06-0.44 0.03-0.64-0.08-0.17-0.1-0.28-0.23-0.35-0.41-0.3 0.39-0.63 0.74-1.01 1.06 0.17 0.06 0.31 0.16 0.41 0.31 0.13 0.19 0.18 0.4 0.13 0.63-0.04 0.23-0.16 0.41-0.35 0.54-0.19 0.13-0.4 0.18-0.63 0.13-0.23-0.04-0.41-0.16-0.54-0.35-0.11-0.15-0.16-0.32-0.15-0.5-0.41 0.23-0.86 0.41-1.33 0.55 0.13 0.12 0.21 0.26 0.25 0.44 0.05 0.23 0 0.44-0.12 0.63-0.13 0.19-0.31 0.32-0.53 0.36-0.22 0.04-0.44 0-0.63-0.12zM9.23 14.47 9.15 14.09C8.44 14.16 7.71 14.11 7.01 13.93L6.91 14.29c0.05 0 0.1 0.01 0.15 0.02 0.06 0.02 0.12 0.04 0.18 0.06 0.64 0.13 1.31 0.17 1.99 0.09zm0.47-0.09c0.07-0.01 0.14-0.02 0.21-0.02 0.13-0.03 0.26-0.06 0.39-0.1 0.53-0.15 1.03-0.37 1.48-0.64l-0.22-0.32c-0.64 0.37-1.32 0.62-2.03 0.74l0.05 0.37c0.04-0.01 0.08-0.02 0.12-0.03zm-3.14-0.17 0.09-0.37C5.98 13.61 5.34 13.28 4.76 12.82l-0.24 0.28c0.05 0.02 0.09 0.05 0.14 0.08 0.06 0.04 0.11 0.09 0.16 0.15 0.53 0.37 1.12 0.67 1.74 0.87zM9.09 13.74 8.27 9.43 7.1 13.59c0.65 0.16 1.32 0.21 1.98 0.15zM11.35 13 8.84 9.39 9.47 13.68C10.13 13.57 10.77 13.35 11.36 13Zm0.79 0.36c0.05-0.04 0.11-0.07 0.17-0.09 0.56-0.41 1.05-0.91 1.45-1.48l-0.34-0.21c-0.16 0.22-0.33 0.43-0.52 0.64-0.32 0.34-0.66 0.63-1.03 0.88l0.2 0.32c0.02-0.02 0.04-0.04 0.07-0.05zM6.73 13.48 7.73 9.24 4.99 12.54c0.53 0.42 1.13 0.73 1.74 0.94zm5.92-1.51c0.17-0.18 0.33-0.38 0.47-0.58L9.35 9.11 11.68 12.8c0.34-0.23 0.67-0.51 0.96-0.82zm-8.4 0.9 0.23-0.3c-0.03-0.03-0.06-0.06-0.09-0.09C3.87 12.01 3.47 11.47 3.17 10.89l-0.33 0.17c0.04 0.04 0.07 0.09 0.09 0.14 0.03 0.06 0.06 0.12 0.08 0.19 0.34 0.56 0.76 1.07 1.24 1.49zM4.69 12.29 7.31 8.84 3.48 10.74c0.29 0.54 0.66 1.05 1.14 1.49 0.02 0.02 0.04 0.04 0.07 0.06zm9.28-0.84c0.03-0.06 0.08-0.11 0.12-0.16 0.35-0.61 0.6-1.28 0.74-1.98L14.43 9.25c-0.14 0.7-0.4 1.39-0.79 2.02l0.31 0.21c0.01-0.01 0.01-0.02 0.02-0.03zM14.07 9.21 9.7 8.66 13.34 11.07c0.36-0.58 0.61-1.22 0.74-1.87zM2.67 10.74 3 10.56C2.71 9.9 2.54 9.2 2.49 8.5L2.12 8.52c0 0.02-0.01 0.04-0.01 0.07 0.03 0.42 0.11 0.85 0.23 1.27 0.09 0.31 0.2 0.6 0.32 0.88zM3.31 10.38 7.09 8.31 2.84 8.49c0.04 0.65 0.2 1.29 0.47 1.9zM14.86 8.95c0.02-0.11 0.05-0.21 0.04-0.1 0.09-0.74 0.05-1.49-0.13-2.24l-0.39 0.12c0.16 0.71 0.2 1.44 0.1 2.16l0.38 0.06zM14.04 6.82 9.83 8.09 14.14 8.82c0.09-0.67 0.05-1.34-0.09-2zM2.09 8.15 2.47 8.12C2.47 7.42 2.59 6.71 2.83 6.04L2.48 5.9c-0.01 0.01-0.01 0.02-0.02 0.03C2.21 6.64 2.08 7.39 2.09 8.15ZM2.83 8.09 7.1 7.73 3.16 6.17C2.94 6.79 2.83 7.44 2.83 8.09ZM9.73 7.53 13.94 6.45C13.76 5.82 13.45 5.21 13.04 4.67L9.73 7.53ZM7.35 7.21 4.39 4.18c-0.01 0.01-0.01 0.01-0.02 0.02-0.46 0.49-0.81 1.03-1.06 1.61L7.35 7.21ZM9.4 7.05 12.8 4.37C12.67 4.22 12.54 4.08 12.4 3.95 12.04 3.62 11.66 3.34 11.26 3.12L9.4 7.05ZM7.79 6.84 6.31 2.85C5.71 3.1 5.16 3.45 4.66 3.91L7.79 6.84ZM8.91 6.75 10.91 2.94C10.3 2.66 9.66 2.49 9 2.43L8.91 6.75ZM8.34 6.68 8.61 2.41C7.96 2.4 7.3 2.5 6.67 2.71L8.34 6.68Zm5.95-0.32 0.38-0.1c-0.01-0.04-0.01-0.07-0.01-0.11-0.23-0.74-0.58-1.4-1.03-1.98L13.31 4.44C13.76 5.02 14.08 5.68 14.29 6.36ZM4.11 3.96c0.01-0.01 0.02-0.02 0.03-0.03L3.87 3.66c-0.01 0.01-0.02 0.02-0.03 0.02C3.32 4.23 2.9 4.87 2.61 5.56l0.36 0.13C3.24 5.07 3.62 4.48 4.11 3.96ZM13.07 4.15 13.38 3.9C13.36 3.88 13.35 3.85 13.33 3.82 12.83 3.26 12.23 2.79 11.58 2.43l-0.17 0.36c0.44 0.24 0.85 0.54 1.23 0.89 0.16 0.15 0.3 0.3 0.44 0.46zM6.18 2.52 6.05 2.15c-0.01 0-0.02 0-0.03 0.01C5.3 2.46 4.66 2.88 4.12 3.39L4.41 3.66C4.94 3.17 5.54 2.79 6.18 2.52Zm4.89 0.11 0.18-0.35c-0.01-0.01-0.02-0.02-0.03-0.02C10.53 1.93 9.79 1.73 9.02 1.67l-0.01 0.4c0.71 0.06 1.41 0.24 2.06 0.55zM8.63 2.06 8.66 1.66c-0.01 0-0.03-0.01-0.04-0.01C8 1.64 7.37 1.72 6.74 1.9 6.62 1.94 6.5 1.98 6.38 2.02l0.15 0.37C7.21 2.15 7.92 2.04 8.63 2.06Z"/></svg>

<?xml version="1.0" standalone="no"?>
<!DOCTYPE svg PUBLIC "-//W3C//DTD SVG 1.1//EN" "http://www.w3.org/Graphics/SVG/1.1/DTD/svg11.dtd">
<svg xmlns:xlink="http://www.w3.org/1999/xlink" xmlns="http://www.w3.org/2000/svg" version="1.1" width="17px" height="18px" viewBox="0 0 17 18">
  <g stroke="none" fill="#000000">
    <path d="M5.04 18L5.04 16.37L5.1 16.37L7.95 9.14L8.28 9.27L5.47 16.37L11.17 16.37L8.69 9.21L9.02 9.1L11.55 16.37L11.6 16.37L11.6 18L5.04 18z"/>
    <path d="M9.4 15.89C9.21 15.76 9.09 15.58 9.04 15.36C9 15.17 9.02 15 9.1 14.83C8.61 14.88 8.12 14.86 7.64 14.8C7.71 14.97 7.73 15.14 7.68 15.32C7.63 15.55 7.5 15.72 7.3 15.84C7.1 15.96 6.88 16 6.66 15.94C6.44 15.89 6.26 15.76 6.14 15.56C6.02 15.36 5.99 15.14 6.04 14.92C6.09 14.74 6.18 14.6 6.31 14.49C5.86 14.33 5.43 14.13 5.02 13.88C5.02 14.05 4.97 14.21 4.86 14.36C4.73 14.54 4.54 14.65 4.31 14.69C4.08 14.73 3.87 14.68 3.68 14.55C3.5 14.41 3.38 14.23 3.35 14C3.31 13.77 3.36 13.55 3.49 13.37C3.6 13.21 3.75 13.11 3.92 13.06C3.57 12.73 3.24 12.36 2.96 11.96C2.89 12.12 2.77 12.25 2.61 12.34C2.41 12.45 2.2 12.47 1.97 12.41C1.75 12.34 1.57 12.21 1.46 12.01C1.35 11.81 1.33 11.59 1.39 11.37C1.46 11.14 1.59 10.97 1.79 10.86C1.95 10.77 2.12 10.74 2.3 10.76C2.18 10.5 2.09 10.23 2.01 9.95C1.92 9.66 1.86 9.37 1.82 9.08C1.68 9.2 1.52 9.26 1.34 9.27C1.11 9.28 0.9 9.21 0.73 9.05C0.56 8.89 0.46 8.7 0.45 8.47C0.44 8.24 0.51 8.03 0.67 7.86C0.82 7.69 1.02 7.59 1.25 7.58C1.43 7.57 1.6 7.62 1.75 7.72C1.78 7.22 1.86 6.74 1.99 6.27C1.81 6.33 1.63 6.31 1.46 6.24C1.25 6.16 1.09 6 1 5.79C0.91 5.57 0.91 5.36 0.99 5.14C1.08 4.93 1.23 4.77 1.45 4.68C1.66 4.59 1.88 4.59 2.09 4.68C2.26 4.74 2.39 4.85 2.48 5C2.7 4.58 2.96 4.17 3.26 3.8C3.09 3.78 2.93 3.71 2.81 3.58C2.64 3.42 2.55 3.22 2.55 2.99C2.55 2.75 2.62 2.55 2.78 2.38C2.94 2.22 3.14 2.13 3.38 2.13C3.61 2.12 3.81 2.2 3.98 2.36C4.12 2.49 4.2 2.65 4.22 2.83C4.6 2.53 5.01 2.26 5.45 2.03C5.3 1.94 5.18 1.8 5.12 1.62C5.04 1.41 5.05 1.19 5.14 0.98C5.24 0.76 5.4 0.62 5.61 0.54C5.83 0.45 6.05 0.46 6.26 0.56C6.47 0.66 6.62 0.82 6.7 1.03C6.77 1.2 6.77 1.37 6.72 1.54C7.2 1.41 7.67 1.33 8.15 1.31C8.04 1.16 8 0.99 8.01 0.81C8.02 0.58 8.11 0.38 8.28 0.22C8.46 0.06 8.66 -0.01 8.89 0C9.12 0.01 9.32 0.1 9.47 0.28C9.63 0.45 9.71 0.65 9.7 0.88C9.69 1.07 9.62 1.23 9.51 1.37C10 1.44 10.47 1.57 10.92 1.74C10.89 1.56 10.92 1.38 11 1.21C11.11 1.01 11.28 0.87 11.5 0.8C11.72 0.73 11.94 0.74 12.15 0.85C12.35 0.96 12.49 1.12 12.56 1.35C12.63 1.57 12.61 1.79 12.5 1.99C12.42 2.15 12.3 2.27 12.15 2.35C12.55 2.6 12.92 2.9 13.27 3.23C13.31 3.06 13.4 2.92 13.54 2.8C13.71 2.65 13.92 2.58 14.15 2.6C14.38 2.62 14.58 2.72 14.73 2.9C14.88 3.07 14.94 3.28 14.92 3.51C14.91 3.74 14.81 3.94 14.63 4.09C14.49 4.21 14.32 4.27 14.14 4.28C14.41 4.68 14.64 5.12 14.83 5.58C14.94 5.43 15.09 5.33 15.27 5.29C15.5 5.23 15.71 5.26 15.91 5.38C16.12 5.49 16.25 5.67 16.31 5.89C16.36 6.11 16.33 6.33 16.21 6.53C16.1 6.73 15.93 6.86 15.7 6.92C15.53 6.97 15.36 6.96 15.2 6.9C15.28 7.38 15.32 7.86 15.3 8.33C15.46 8.24 15.63 8.21 15.81 8.24C16.04 8.27 16.23 8.38 16.37 8.57C16.51 8.76 16.56 8.97 16.53 9.19C16.5 9.42 16.38 9.61 16.2 9.75C16.01 9.89 15.8 9.94 15.57 9.91C15.39 9.89 15.23 9.81 15.11 9.68C15 10.15 14.83 10.6 14.63 11.03C14.79 11.01 14.96 11.05 15.11 11.14C15.31 11.25 15.44 11.43 15.5 11.65C15.56 11.88 15.53 12.09 15.42 12.29C15.3 12.49 15.13 12.62 14.9 12.68C14.68 12.74 14.46 12.71 14.26 12.6C14.1 12.5 13.98 12.37 13.91 12.19C13.62 12.58 13.28 12.93 12.9 13.25C13.07 13.31 13.21 13.41 13.32 13.56C13.45 13.75 13.49 13.96 13.45 14.19C13.41 14.42 13.29 14.61 13.1 14.74C12.91 14.87 12.7 14.91 12.47 14.87C12.24 14.83 12.06 14.71 11.93 14.53C11.82 14.37 11.77 14.21 11.78 14.03C11.37 14.25 10.92 14.44 10.45 14.58C10.58 14.69 10.66 14.84 10.7 15.02C10.74 15.24 10.7 15.46 10.57 15.65C10.44 15.85 10.26 15.97 10.04 16.02C9.81 16.06 9.6 16.02 9.4 15.89zM9.23 14.47L9.16 14.08C8.44 14.16 7.71 14.11 7.01 13.93L6.91 14.29C6.96 14.29 7.01 14.3 7.06 14.31C7.13 14.33 7.18 14.35 7.24 14.37C7.88 14.51 8.55 14.54 9.23 14.47zM9.7 14.37C9.77 14.36 9.84 14.35 9.91 14.35C10.04 14.32 10.17 14.29 10.3 14.25C10.83 14.1 11.33 13.88 11.78 13.62L11.56 13.29C10.92 13.67 10.24 13.91 9.53 14.03L9.58 14.4C9.62 14.39 9.66 14.38 9.7 14.37zM6.56 14.2L6.65 13.83C5.98 13.61 5.34 13.27 4.76 12.82L4.52 13.1C4.57 13.13 4.62 13.15 4.66 13.18C4.72 13.23 4.78 13.28 4.82 13.33C5.35 13.7 5.94 14 6.56 14.2zM9.09 13.74L8.27 9.43L7.11 13.59C7.76 13.76 8.43 13.8 9.09 13.74zM11.36 13L8.84 9.38L9.48 13.68C10.13 13.57 10.77 13.34 11.36 13zM12.15 13.36C12.2 13.32 12.26 13.29 12.32 13.26C12.88 12.85 13.37 12.35 13.77 11.79L13.43 11.58C13.27 11.8 13.1 12.01 12.91 12.22C12.59 12.55 12.25 12.85 11.88 13.1L12.08 13.41C12.1 13.39 12.12 13.38 12.15 13.36zM6.73 13.48L7.73 9.24L4.99 12.54C5.52 12.97 6.11 13.28 6.73 13.48zM12.65 11.97C12.82 11.79 12.98 11.6 13.12 11.4L9.35 9.11L11.69 12.8C12.03 12.56 12.35 12.29 12.65 11.97zM4.25 12.87L4.47 12.57C4.44 12.54 4.41 12.51 4.38 12.48C3.88 12.01 3.47 11.47 3.17 10.89L2.84 11.06C2.87 11.1 2.9 11.14 2.93 11.19C2.97 11.26 2.99 11.32 3.01 11.38C3.35 11.95 3.77 12.45 4.25 12.87zM4.69 12.29L7.31 8.84L3.49 10.74C3.77 11.28 4.15 11.78 4.62 12.23C4.65 12.25 4.67 12.27 4.69 12.29zM13.97 11.45C14 11.39 14.04 11.33 14.09 11.28C14.44 10.67 14.69 10 14.83 9.3L14.43 9.25C14.29 9.96 14.03 10.64 13.64 11.27L13.95 11.48C13.96 11.47 13.96 11.46 13.97 11.45zM14.08 9.21L9.7 8.65L13.34 11.07C13.7 10.49 13.95 9.86 14.08 9.21zM2.67 10.74L3 10.55C2.71 9.9 2.54 9.2 2.49 8.5L2.12 8.51C2.12 8.54 2.12 8.56 2.11 8.58C2.15 9.01 2.22 9.43 2.35 9.85C2.43 10.16 2.54 10.45 2.67 10.74zM3.31 10.38L7.09 8.31L2.85 8.48C2.89 9.13 3.05 9.78 3.31 10.38zM14.87 8.95C14.88 8.84 14.92 8.74 14.9 8.85C14.99 8.11 14.95 7.36 14.78 6.6L14.39 6.72C14.55 7.43 14.59 8.16 14.49 8.88L14.87 8.95zM14.05 6.82L9.84 8.09L14.14 8.82C14.23 8.16 14.2 7.48 14.05 6.82zM2.09 8.15L2.48 8.12C2.47 7.42 2.59 6.71 2.83 6.04L2.49 5.9C2.48 5.91 2.47 5.92 2.46 5.93C2.21 6.64 2.09 7.39 2.09 8.15zM2.83 8.09L7.11 7.73L3.16 6.17C2.94 6.79 2.83 7.44 2.83 8.09zM9.73 7.53L13.95 6.45C13.76 5.82 13.46 5.21 13.05 4.67L9.73 7.53zM7.35 7.21L4.39 4.18C4.38 4.19 4.38 4.19 4.37 4.2C3.91 4.68 3.56 5.23 3.31 5.8L7.35 7.21zM9.41 7.05L12.8 4.36C12.67 4.22 12.54 4.08 12.4 3.95C12.05 3.62 11.66 3.34 11.26 3.12L9.41 7.05zM7.79 6.84L6.31 2.85C5.72 3.1 5.16 3.45 4.67 3.9L7.79 6.84zM8.92 6.75L10.91 2.94C10.3 2.65 9.66 2.49 9.01 2.43L8.92 6.75zM8.34 6.68L8.61 2.41C7.96 2.4 7.3 2.5 6.68 2.71L8.34 6.68zM14.29 6.36L14.67 6.26C14.66 6.23 14.66 6.19 14.65 6.15C14.42 5.42 14.07 4.75 13.62 4.17L13.32 4.43C13.76 5.02 14.09 5.68 14.29 6.36zM4.11 3.95C4.12 3.94 4.13 3.94 4.14 3.93L3.87 3.65C3.86 3.66 3.85 3.67 3.84 3.68C3.32 4.23 2.9 4.87 2.61 5.56L2.97 5.69C3.24 5.06 3.62 4.48 4.11 3.95zM13.08 4.14L13.38 3.9C13.37 3.87 13.35 3.85 13.34 3.82C12.83 3.25 12.24 2.78 11.58 2.43L11.41 2.79C11.85 3.03 12.26 3.33 12.64 3.69C12.8 3.83 12.94 3.99 13.08 4.14zM6.19 2.52L6.05 2.15C6.04 2.15 6.03 2.15 6.02 2.16C5.31 2.46 4.67 2.88 4.12 3.39L4.41 3.66C4.94 3.16 5.54 2.78 6.19 2.52zM11.07 2.62L11.26 2.27C11.25 2.27 11.24 2.26 11.23 2.25C10.54 1.93 9.79 1.73 9.02 1.67L9.01 2.07C9.72 2.13 10.42 2.32 11.07 2.62zM8.64 2.05L8.66 1.66C8.65 1.66 8.64 1.65 8.63 1.65C8 1.64 7.37 1.72 6.74 1.9C6.62 1.94 6.5 1.97 6.39 2.02L6.54 2.38C7.22 2.15 7.93 2.04 8.64 2.05z"/>
  </g>
</svg>
